X:1
T:Ave vivens hostia
T:Ave vivens hostia
T:André Vierendeels (12/09/10)
C:André Vierendeels
C:(12/09/10)
%%score [ 1 2 3 4 ]
L:1/8
Q:1/4=120
M:2/2
K:C
V:1 treble nm="Soprano" snm="S"
V:2 treble nm="Alto" snm="A"
V:3 treble-8 nm="Tenor" snm="T"
V:4 bass nm="Bass" snm="B"
V:1
 D4 A4 | D4 A4 | G4 B4 | !fermata!c8 | B4 A4 | G4 F4 | E8 | !fermata!D8 :| D4 E4 | F4 D4 | F4 G4 | %11
w: A- ve|vi- vens|ho- sti-|a,|ve- ri-|tas et|vi-|ta,|per te|Pa- tri|glo- ri-|
w: per te|sa- cri-|fi- ci-|a|cun- cta|sunt fi-|ni-|ta,||||
 !fermata!E8 | D4 E4 | F4 G4 | A8 | !fermata!D8 | D4 E4 | F4 G4 | A4 A4 | !fermata!G8 | A4 G4 | %21
w: a|da- tur|in- fi-|ni-|ta|per te|stat ec-|cle- si-|a|ju- gi-|
w: ||||||||||
"^-natural" D4 F4 | E8 | !fermata!D8 |] %24
w: ter mu-|ni-|ta.|
w: |||
V:2
 A,4 C4 | G4 C4 | D2 E4 D2 | !fermata!E8 | G2 E2 ^C2 E2 | D4 D4 | A,3 B, D2 ^C2 | !fermata!A,8 :| %8
w: A- ve|vi- *|hos- * sti-|a|ve- * ri- *|tas et|vi- * * *|ta,|
w: per te|sa- *|fi- * ci-|a|cun- * cta _|sunt fi-|ni- * * *|ta,|
 A,4 C4 | D4 B,4 | C4 E4 | !fermata!A,8 | F4 C4 | D4 D4 | A,B,^CD D2 C2 | !fermata!A,8 | A,4 C4 | %17
w: per te|Pa- tri|glo- ri-|a|da- tur|in- fi-|ni- * * * * *|ta|per te|
w: |||||||||
 C4 C4 | G2 ^FE F G2 F | !fermata!D8 | E4 D2 E2 | ^F2 G2 D4 | G2 ED ^C4 | !fermata!A,8 |] %24
w: stat ec-|cle- * * * * si-|a|ju- gi- *|ter _ mu-|ni- * * *|ta.|
w: |||||||
V:3
 F4 E4 | G4 E4 | B2 A2 ^G2 B2 | !fermata!A8 | B2 G2 A4 | G4 A4 | d2 ^cB A4 | !fermata!^F8 :| %8
w: A- ve|vi- vens|ho- * sti- *|a|ve- * ri-|tas et|vi- * * *|ta,|
w: per te|sa- cri-|fi- * ci- *|a|cun- * cta|sunt fi|ni- * * *|ta,-|
"^-natural" F4 G4 | G4 G4 | A4 B4 | !fermata!^c8 | A4 G4 | F4 G4 | d2 ^cB A4 | !fermata!^F8 | %16
w: per te|Pa- tri|glo- ri-|a|da- tur|in- fi-|ni- * * *|ta|
w: ||||||||
"^-natural" F4 G4 | A4 G4 | d4 A4 | !fermata!B8 | c4 AG A2 | A2 G2 A4 | ^c2 B2 A2 G2 | %23
w: pe te|stat ec-|cle- si-|a|ju- * * *|ter _ mu-|ni- * * *|
w: |||||||
 !fermata!^F8 |] %24
w: ta.|
w: |
V:4
 D,4 A,,4 | B,,4 A,,4 | B,,2 C,2 E,4 | !fermata!A,,8 | E,4 A,,4 | B,,4 D,4 | A,,8 | !fermata!D,8 :| %8
w: A- ve|vi- vens|ho- * sti-|a|ve- ri-|tas et|vi-|ta,|
w: per te|sa- cri-|fi- * ci-|a|cun- cta|sunt fi-|ni-|ta,-|
 D,4 C,4 | B,,2 D,2 G,4 | F,4 E,4 | !fermata!A,,8 | D,4 E,2 D,2 | _B,,4 G,,4 | A,,8 | %15
w: per te|Pa- * tri|glo- ri-|a|da- tu _|in- fi-|ni-|
w: |||||||
 !fermata!D,8 | D,4 C,4 | F,4 E,4 | D,4 D,4 | !fermata!G,8 | A,2 A,,2 B,,2 ^C,2 | D,2 B,,^C, D,4 | %22
w: ta|per te|stat ec-|cle- si-|a|ju- * gi- *|ter _ _ mu-|
w: |||||||
 A,,8 | !fermata!D,8 |] %24
w: ni-|ta.|
w: ||

